resources/haticons/SVG/fiber_new.svg

<!-- Generated by IcoMoon.io -->
<svg version="1.1" xmlns="http://www.w3.org/2000/svg" width="24" height="24" viewBox="0 0 24 24">
<title>fiber_new</title>
<path d="M20.484 14.016v-5.016h-1.219v4.5h-1.125v-3.516h-1.266v3.516h-1.125v-4.5h-1.266v5.016q0 0.422 0.305 0.703t0.727 0.281h3.984q0.422 0 0.703-0.281t0.281-0.703zM13.5 10.266v-1.266h-3.984v6h3.984v-1.266h-2.484v-1.078h2.484v-1.266h-2.484v-1.125h2.484zM8.484 15v-6h-1.219v3.516l-2.531-3.516h-1.219v6h1.219v-3.516l2.578 3.516h1.172zM20.016 3.984q0.844 0 1.406 0.586t0.563 1.43v12q0 0.844-0.563 1.43t-1.406 0.586h-16.031q-0.844 0-1.406-0.586t-0.563-1.43v-12q0-0.844 0.563-1.43t1.406-0.586h16.031z"></path>
</svg>

<svg xmlns="http://www.w3.org/2000/svg" width="24" height="24"><path d="M20.484 14.016V9h-1.219v4.5H18.14V9.984h-1.266V13.5h-1.125V9h-1.266v5.016q0 .422.305.703t.727.281h3.984q.422 0 .703-.281t.281-.703zm-6.984-3.75V9H9.516v6H13.5v-1.266h-2.484v-1.078H13.5V11.39h-2.484v-1.125H13.5zM8.484 15V9H7.265v3.516L4.734 9H3.515v6h1.219v-3.516L7.312 15h1.172zM20.016 3.984q.844 0 1.406.586T21.985 6v12q0 .844-.563 1.43t-1.406.586H3.985q-.844 0-1.406-.586T2.016 18V6q0-.844.563-1.43t1.406-.586h16.031z"/></svg>
